assets/features/channel/other/Momken.svg

<svg width="80" height="80" viewBox="0 0 80 80" fill="none" xmlns="http://www.w3.org/2000/svg">
<rect x="0.5" y="0.5" width="79" height="79" rx="7.5" fill="white"/>
<rect x="0.5" y="0.5" width="79" height="79" rx="7.5" stroke="#EEEEEE"/>
<path d="M63.4779 32.3364C65.6707 32.693 67.4356 34.5827 67.8813 37.0607C67.9526 37.4886 67.9883 37.9164 67.9883 38.3443C67.9883 42.8368 68.0239 47.3115 67.9705 51.8041C67.9348 54.0682 66.9721 55.9222 64.9041 57.0454C64.1554 57.4554 63.3353 57.6693 62.4796 57.6693C50.446 57.6693 38.4124 57.6693 26.361 57.6693C23.1699 57.6693 20.7097 55.2091 20.7097 52.018C20.7097 48.1851 20.7097 44.3522 20.7097 40.5014C20.7097 40.1092 20.8167 39.9844 21.2089 39.9844C21.9042 40.0201 22.5994 39.9844 23.2769 40.0023C23.7404 40.0201 23.9008 39.8775 23.883 39.414C23.8474 38.4513 24.0435 37.5421 24.6853 36.7755C25.4162 35.9198 26.3076 35.4384 27.4485 35.4919C27.9477 35.5097 28.1081 35.3493 28.1081 34.8323C28.1081 33.9944 27.9833 33.1387 28.1794 32.3008C28.3399 33.0317 28.1794 33.7805 28.2508 34.3866C28.2508 34.03 28.2864 33.5131 28.2508 33.0139C28.2151 32.5325 28.3577 32.3364 28.8925 32.3543C30.5683 32.3899 32.2619 32.3543 33.9377 32.3543C43.5468 32.3543 53.1558 32.3543 62.747 32.3543C62.9787 32.3543 63.2283 32.3899 63.4601 32.3186L63.4779 32.3364Z" fill="#006C48"/>
<path d="M27.306 24.1536C27.306 25.4372 27.306 25.455 26.0581 25.6511C23.3483 26.079 20.9237 27.1308 18.9271 29.0205C16.8412 30.9815 15.6825 33.4417 15.1298 36.205C14.9872 36.9003 14.898 37.6134 14.8446 38.3086C14.8089 38.6652 14.6841 38.8078 14.3276 38.79C13.7214 38.79 13.1153 38.79 12.5092 38.8435C12.117 38.8791 11.9565 38.7721 12.01 38.3443C12.4913 33.9587 13.9532 30.0188 17.2156 26.899C19.5689 24.6528 22.4391 23.4405 25.5946 22.8522C25.6302 22.8522 25.6837 22.8522 25.7193 22.8344C26.7771 22.6561 27.306 23.0899 27.306 24.1358V24.1536Z" fill="#EE8127"/>
<path d="M27.306 28.539C27.306 29.4067 26.8841 29.9355 26.0402 30.1257C21.9934 30.9992 19.4797 33.9051 19.0519 38.2372C19.0162 38.6651 18.8914 38.7899 18.4814 38.772C17.8931 38.7542 17.3226 38.772 16.7343 38.772C16.449 38.772 16.2886 38.7007 16.3243 38.362C16.663 34.7787 17.9109 31.641 20.8881 29.3948C22.6352 28.0755 24.6497 27.4337 26.789 27.1485C27.199 27.095 27.3416 27.2376 27.306 27.6298C27.2882 27.9329 27.306 28.236 27.306 28.539Z" fill="#F59D23"/>
<path d="M27.2524 32.9246C27.2524 34.1012 27.2524 34.1012 26.1827 34.4934C24.4 35.153 23.366 36.4188 23.0808 38.2729C23.0095 38.7007 22.8847 38.8255 22.4746 38.7899C21.9576 38.772 21.4406 38.7899 20.9236 38.7899C20.5849 38.7899 20.4779 38.7007 20.5136 38.3442C20.888 35.1887 22.5281 32.7107 25.7905 31.8193C27.2346 31.4271 27.2524 31.4449 27.2524 32.9068V32.9246Z" fill="#F5B820"/>
<path d="M62.8542 23.9395C63.4068 23.7612 63.7456 23.886 63.8882 24.51C64.0664 25.2409 64.3695 25.9183 64.6191 26.6314C64.6548 26.7562 64.7082 26.8988 64.8687 26.8632C65.047 26.8275 65.0113 26.6671 65.0113 26.5601C65.0113 25.544 65.0291 24.5278 65.0113 23.5294C65.0113 23.1016 65.1539 23.0481 65.5283 23.0303C65.9205 23.0303 65.9918 23.1729 65.9918 23.5294C65.974 24.5991 65.9918 25.6866 65.9918 26.7562C65.9918 27.4337 65.7244 27.6833 65.0648 27.7011C64.4408 27.7011 63.8169 27.7011 63.1929 27.7011C63.0324 27.7011 62.8364 27.7367 62.7116 27.5941C62.5689 27.4158 62.2837 27.291 62.3907 27.0236C62.4798 26.8097 62.7294 26.9167 62.9077 26.8988C63.8525 26.881 63.8525 26.8988 63.5316 25.954C63.3177 25.2944 62.9968 24.6526 62.8898 23.9573L62.8542 23.9395Z" fill="#016B47"/>
<path d="M63.4779 32.3362C63.2283 32.5145 62.9252 32.4432 62.6578 32.4432C51.4978 32.4432 40.3378 32.4432 29.1778 32.4432C28.6192 32.4432 28.3399 32.7284 28.3399 33.2989C28.3399 33.8872 28.3399 34.4577 28.3399 35.046C28.3399 35.0816 28.3042 35.1173 28.2151 35.2777C28.2151 34.2081 28.2151 33.2632 28.2151 32.3184C28.429 32.3184 28.6429 32.2827 28.8569 32.2827C39.9456 32.2827 51.0343 32.2827 62.123 32.2827C62.5687 32.2827 63.0322 32.3362 63.4779 32.354V32.3362Z" fill="#00552C"/>
<path d="M66.9544 25.4548C66.9544 24.7952 66.9722 24.1178 66.9544 23.4581C66.9366 23.0303 67.1683 23.0481 67.4714 23.0303C67.7923 23.0303 67.9349 23.0838 67.9349 23.4403C67.9171 24.6704 67.9171 25.9005 67.9349 27.1128C67.9349 27.4872 67.7388 27.6654 67.4358 27.7724C67.1505 27.8794 66.9366 27.8437 66.9544 27.4337C66.9722 26.7741 66.9544 26.0966 66.9544 25.437V25.4548Z" fill="#016944"/>
<path d="M35.3284 27.6477C35.5245 27.4516 35.7741 27.5407 36.0058 27.5407C43.3329 27.5407 50.66 27.5407 57.9871 27.5407C58.2189 27.5407 58.4685 27.4694 58.6646 27.6477C58.4685 27.6477 58.2724 27.7012 58.0941 27.7012C50.6422 27.7012 43.1725 27.7012 35.7206 27.7012C35.5958 27.7012 35.471 27.6655 35.3462 27.6655L35.3284 27.6477Z" fill="#005329"/>
<path d="M63.8524 23.1017C63.6385 23.3334 62.6401 23.5117 62.6223 23.3334C62.5688 22.9769 62.6401 22.6025 62.8006 22.2638C62.9432 21.9964 63.2106 21.9607 63.478 22.032C63.6741 22.0855 63.7098 22.2816 63.5493 22.3529C63.3532 22.442 63.1036 22.4599 63.1749 22.7629C63.2463 23.0838 63.5493 22.959 63.7632 23.0125C63.7989 23.0125 63.8167 23.066 63.8524 23.0838V23.1017Z" fill="#06653F"/>
<path d="M30.6042 30.9456C30.3011 30.9456 30.105 30.7851 30.0872 30.4821C30.0872 30.179 30.2476 30.0007 30.5507 29.9829C30.8537 29.9829 31.032 30.1434 31.0498 30.4464C31.0677 30.7673 30.8894 30.9099 30.6042 30.9456Z" fill="#086743"/>
<path d="M31.7985 29.9829C32.0837 30.0364 32.262 30.1968 32.262 30.4999C32.262 30.803 32.0481 30.9634 31.7628 30.9634C31.4776 30.9634 31.2993 30.803 31.3171 30.4821C31.3171 30.1612 31.5132 30.0364 31.7985 30.0007V29.9829Z" fill="#096844"/>
<path d="M32.993 50.1639C32.6186 51.2692 32.2264 52.321 31.3707 53.1767C28.5005 55.9757 24.1684 54.6208 22.9026 51.1266C22.6352 50.3778 22.5283 49.5756 22.5461 48.7733C22.5461 47.2937 22.5461 45.7961 22.5461 44.3165C22.5461 43.9599 22.6352 43.8173 23.0096 43.8351C23.5979 43.8708 24.1862 43.8708 24.7567 43.8351C25.1667 43.8173 25.2737 43.9421 25.2559 44.3521C25.238 45.9388 25.2559 47.5432 25.2559 49.1299C25.2559 50.1639 25.6302 51.0553 26.5573 51.5723C28.0904 52.4458 29.891 51.6257 30.2832 49.8965C30.3545 49.5934 30.3724 49.2547 30.3724 48.9338C30.3724 47.4006 30.3724 45.8675 30.3724 44.3343C30.3724 43.9243 30.4972 43.8173 30.8894 43.8351C31.442 43.8708 32.0125 43.8708 32.5651 43.8351C32.9573 43.8173 33.0465 43.9599 33.0287 44.3165C33.0108 45.1365 33.0287 45.9566 33.0287 46.7767C33.0287 47.1689 33.0821 47.3471 33.5457 47.3471C36.7011 47.3293 39.8566 47.3293 43.0121 47.3471C43.4221 47.3471 43.5291 47.2045 43.4934 46.8123C43.4578 46.117 43.4399 45.4396 43.4399 44.7443C43.4399 44.2808 43.1547 44.0847 42.7803 43.9777C42.5486 43.9243 42.3168 43.9243 42.0672 43.9243C40.124 43.9243 38.1808 43.9243 36.2376 43.9243C34.954 43.9243 34.0983 43.122 34.027 41.8206C33.9557 40.5727 34.4192 39.4852 35.1858 38.5582C37.4855 35.7949 40.3736 34.2261 44.0282 34.1548C44.5274 34.1548 44.7057 34.2796 44.67 34.7966C44.5987 35.5097 44.8483 36.3654 44.5274 36.8824C44.2243 37.3994 43.2795 37.1676 42.6199 37.3103C40.4984 37.7738 38.68 38.683 37.3786 40.4657C37.2894 40.5727 37.1112 40.6797 37.2003 40.8401C37.2894 41.0184 37.4677 40.9292 37.6103 40.9292C39.5714 40.9827 41.5324 41.0362 43.5112 41.0719C45.4366 41.1075 46.3636 42.0345 46.3815 43.9599C46.3815 44.9226 46.3815 45.9031 46.3815 46.8658C46.3815 47.0619 46.2923 47.3115 46.6489 47.3293C47.0767 47.3293 46.9341 47.0619 46.9163 46.848C46.8628 44.6374 48.1642 42.5694 50.0005 41.9098C53.049 40.8401 56.1866 42.9437 56.3649 46.1884C56.3649 46.3845 56.3649 46.5806 56.3649 46.7767C56.3649 47.0262 56.2222 47.3471 56.7214 47.3471C57.2028 47.3471 57.1136 47.0797 57.0958 46.7945C57.0245 45.5287 57.3632 44.3878 58.1654 43.4251C59.4134 41.9098 61.0179 41.2501 62.9432 41.7671C64.9934 42.3198 66.1343 43.746 66.4552 45.7961C66.8296 48.1316 65.6887 50.2709 63.585 51.1979C61.9449 51.9288 60.3582 51.6792 58.9677 50.5561C58.522 50.1995 58.112 49.95 57.5237 50.0391C57.2919 50.0748 57.0423 50.0391 56.8106 50.0391C55.83 49.9856 55.01 50.1104 54.1364 50.77C52.4428 52.0714 50.2322 51.804 48.5921 50.3956C48.5208 50.3422 48.4495 50.3065 48.3781 50.2709C48.1107 50.1639 47.8433 50.1461 47.5581 50.1461C42.709 50.1461 37.8599 50.1461 32.993 50.1461V50.1639Z" fill="#FCFCFC"/>
<path d="M30.0515 40.7865C30.0515 42.177 28.9818 43.2467 27.6091 43.2289C26.2364 43.2289 25.1845 42.1236 25.2024 40.733C25.2024 39.3246 26.3255 38.2015 27.6982 38.2372C29.0353 38.255 30.0693 39.3781 30.0693 40.7687L30.0515 40.7865Z" fill="#FEFEFE"/>
<path d="M32.9929 50.1637C33.1712 49.9676 33.403 50.0745 33.5991 50.0745C38.252 50.0745 42.905 50.0745 47.558 50.0745C47.8432 50.0745 48.182 49.9676 48.3781 50.2885C43.5111 50.2885 38.6621 50.2885 33.7952 50.2885C33.5456 50.2885 33.2069 50.5024 32.9929 50.1815V50.1637Z" fill="#005329"/>
<path d="M60.18 24.5456C59.4669 24.51 58.6291 24.2069 58.219 25.2944C58.0764 25.6688 57.6485 25.9718 57.7377 26.4532C57.809 26.8275 57.6664 26.881 57.3276 26.881C50.0897 26.881 42.8517 26.881 35.6316 26.881C35.2572 26.881 35.1502 26.7741 35.1502 26.4175C35.168 25.4548 35.1502 24.4743 35.1502 23.5116C35.1502 23.1551 35.0611 23.0125 34.6867 23.0303C34.3302 23.0303 34.1162 23.0838 34.1519 23.5116C34.1875 24.0286 34.1519 24.5456 34.1519 25.0626C34.1519 25.6331 34.348 26.4175 34.0449 26.7384C33.7062 27.1306 32.904 26.8275 32.3156 26.8632C32.2978 26.8632 32.28 26.8632 32.2443 26.8632C32.0482 26.9167 31.763 26.7384 31.6739 27.0058C31.5847 27.2554 31.8878 27.398 31.9948 27.5941C32.0661 27.7546 32.4583 27.5585 32.3513 27.915C32.28 28.1646 32.0661 28.3072 31.8521 28.3785C30.6577 28.7886 29.9268 28.2894 29.8733 27.0236C29.8733 26.881 29.9446 26.6849 29.7841 26.6136C29.6059 26.5423 29.4276 26.578 29.2493 26.7206C28.8036 27.0415 28.7858 27.915 29.2315 28.5212C29.8555 29.3947 32.2978 29.6265 32.904 28.6994C33.4031 27.9329 33.9201 27.6298 34.7402 27.5228C34.9898 27.4872 35.1146 27.5406 35.275 27.6298C35.4533 27.5406 35.6494 27.5763 35.8455 27.5763C43.2439 27.5763 50.6423 27.5763 58.0407 27.5763C58.2368 27.5763 58.4329 27.5406 58.6112 27.6298C59.3421 27.6476 60.0731 27.6654 60.804 27.6833C61.1071 27.6833 61.3388 27.5941 61.4993 27.3089C62.1054 26.2214 61.3388 24.6169 60.1087 24.5456H60.18ZM58.843 26.7562C58.5399 26.7562 58.4151 26.6314 58.4151 26.4532C58.4151 26.0788 58.4151 25.847 58.7717 25.847C59.0926 25.847 59.1639 26.0788 59.1639 26.3105C59.1639 26.5245 59.1282 26.7384 58.8252 26.7562H58.843ZM60.3405 26.8989C59.9305 26.8989 59.77 26.7919 59.877 26.364C59.9839 25.9183 59.6809 25.6153 59.3243 25.2409C60.2335 25.1696 60.697 25.5261 60.7505 26.3105C60.7505 26.5958 60.8575 26.9167 60.3405 26.9167V26.8989Z" fill="#006A46"/>
<path d="M53.869 46.5807C53.869 47.8643 52.8528 48.9696 51.6584 48.9874C50.4818 48.9874 49.3765 47.8643 49.3765 46.6342C49.3765 45.3506 50.4461 44.2275 51.6762 44.2453C52.8528 44.2453 53.869 45.3506 53.869 46.5986V46.5807Z" fill="#056D4A"/>
<path d="M64.0306 46.634C64.0306 47.8998 62.9431 49.0051 61.7487 48.9872C60.5721 48.9516 59.5559 47.8641 59.5737 46.6162C59.5737 45.2969 60.5721 44.2451 61.8022 44.2451C63.0144 44.2451 64.0484 45.3504 64.0306 46.634Z" fill="#056D4A"/>
</svg>

<svg xmlns="http://www.w3.org/2000/svg" width="80" height="80" fill="none" viewBox="0 0 80 80"><rect width="79" height="79" x=".5" y=".5" fill="#fff" rx="7.5"/><rect width="79" height="79" x=".5" y=".5" stroke="#eee" rx="7.5"/><path fill="#006c48" d="M63.478 32.336c2.193.357 3.958 2.247 4.403 4.725q.108.641.107 1.283c0 4.493.036 8.968-.017 13.46-.036 2.264-.999 4.118-3.067 5.241a5 5 0 0 1-2.424.624H26.36c-3.191 0-5.651-2.46-5.651-5.651V40.501c0-.392.107-.517.499-.517.695.036 1.39 0 2.068.018.463.018.624-.125.606-.588-.036-.963.16-1.872.802-2.639.731-.855 1.623-1.337 2.764-1.283.499.018.66-.143.66-.66 0-.838-.126-1.693.07-2.531.16.73 0 1.48.072 2.086 0-.357.035-.874 0-1.373-.036-.482.107-.678.641-.66 1.676.036 3.37 0 5.046 0h28.809c.232 0 .481.036.713-.035z"/><path fill="#ee8127" d="M27.306 24.154c0 1.283 0 1.301-1.248 1.497-2.71.428-5.134 1.48-7.13 3.37-2.087 1.96-3.246 4.42-3.798 7.184a17 17 0 0 0-.285 2.104c-.036.356-.16.499-.517.481-.607 0-1.213 0-1.819.053-.392.036-.553-.07-.499-.499.481-4.385 1.943-8.325 5.206-11.445 2.353-2.246 5.223-3.459 8.379-4.047.035 0 .089 0 .124-.018q1.587-.267 1.587 1.302z"/><path fill="#f59d23" d="M27.306 28.539q0 1.301-1.266 1.587c-4.047.873-6.56 3.78-6.988 8.111-.036.428-.16.553-.57.535-.589-.018-1.16 0-1.748 0-.285 0-.445-.071-.41-.41.339-3.583 1.587-6.721 4.564-8.967 1.747-1.32 3.762-1.961 5.901-2.247.41-.053.553.09.517.482-.018.303 0 .606 0 .909"/><path fill="#f5b820" d="M27.252 32.925c0 1.176 0 1.176-1.07 1.568-1.782.66-2.816 1.926-3.101 3.78-.072.428-.196.552-.606.517-.517-.018-1.034 0-1.551 0-.34 0-.446-.09-.41-.446.374-3.155 2.014-5.633 5.277-6.525 1.444-.392 1.461-.374 1.461 1.088z"/><path fill="#016b47" d="M62.854 23.94c.553-.179.892-.054 1.034.57.178.73.482 1.408.731 2.121.036.125.09.268.25.232.178-.035.142-.196.142-.303 0-1.016.018-2.032 0-3.03 0-.428.143-.482.517-.5.392 0 .464.143.464.5-.018 1.07 0 2.157 0 3.226 0 .678-.268.927-.927.945h-1.872c-.16 0-.357.036-.481-.107-.143-.178-.428-.303-.321-.57.089-.214.338-.107.517-.125.944-.018.944 0 .624-.945-.214-.66-.535-1.301-.642-1.997z"/><path fill="#00552c" d="M63.478 32.336c-.25.178-.553.107-.82.107h-33.48q-.838 0-.838.856v1.747c0 .036-.036.071-.125.232v-2.96c.214 0 .428-.035.642-.035h33.266c.446 0 .91.053 1.355.071z"/><path fill="#016944" d="M66.954 25.455c0-.66.018-1.337 0-1.997-.017-.428.214-.41.517-.428.321 0 .464.054.464.41a126 126 0 0 0 0 3.673c0 .374-.196.552-.5.66-.285.106-.498.07-.48-.34.017-.659 0-1.336 0-1.996z"/><path fill="#005329" d="M35.328 27.648c.197-.196.446-.107.678-.107h21.981c.232 0 .481-.072.678.107-.197 0-.393.053-.57.053H35.72c-.125 0-.25-.035-.375-.035z"/><path fill="#06653f" d="M63.852 23.102c-.213.231-1.212.41-1.23.231-.053-.356.018-.73.179-1.07.142-.267.41-.302.677-.231.196.053.232.25.071.32-.196.09-.445.108-.374.41.071.322.374.197.588.25.036 0 .054.054.09.072z"/><path fill="#086743" d="M30.604 30.946c-.303 0-.499-.16-.517-.464 0-.303.16-.481.464-.5.303 0 .481.161.499.464.018.321-.16.464-.446.5"/><path fill="#096844" d="M31.799 29.983c.285.053.463.214.463.517s-.214.463-.5.463c-.284 0-.463-.16-.445-.48 0-.322.196-.447.482-.482z"/><path fill="#fcfcfc" d="M32.993 50.164c-.374 1.105-.767 2.157-1.622 3.013-2.87 2.799-7.203 1.444-8.468-2.05a6.6 6.6 0 0 1-.357-2.354v-4.457c0-.356.09-.499.464-.48.588.035 1.176.035 1.747 0 .41-.019.517.106.499.516-.018 1.587 0 3.191 0 4.778 0 1.034.374 1.925 1.301 2.442 1.533.874 3.334.054 3.726-1.675a4.3 4.3 0 0 0 .09-.963v-4.6c0-.41.124-.517.516-.499.553.036 1.124.036 1.676 0 .392-.018.482.125.464.481-.018.82 0 1.64 0 2.46 0 .393.053.571.517.571q4.732-.027 9.466 0c.41 0 .517-.142.481-.535a40 40 0 0 1-.053-2.068c0-.463-.285-.66-.66-.766-.231-.054-.463-.054-.713-.054h-5.83c-1.283 0-2.139-.802-2.21-2.103-.071-1.248.392-2.336 1.159-3.263 2.3-2.763 5.188-4.332 8.842-4.403.5 0 .678.125.642.642-.071.713.178 1.568-.143 2.085-.303.517-1.248.286-1.907.428-2.122.464-3.94 1.373-5.241 3.156-.09.107-.268.214-.179.374.09.178.268.09.41.09 1.961.053 3.922.106 5.901.142 1.926.035 2.853.962 2.87 2.888v2.906c0 .196-.089.446.268.463.428 0 .285-.267.267-.481-.053-2.21 1.248-4.279 3.085-4.938 3.048-1.07 6.186 1.034 6.364 4.278v.589c0 .25-.143.57.356.57.482 0 .393-.267.375-.553-.071-1.265.267-2.406 1.07-3.369 1.247-1.515 2.852-2.175 4.777-1.658 2.05.553 3.191 1.979 3.512 4.03.375 2.335-.766 4.474-2.87 5.4-1.64.732-3.227.482-4.617-.64-.446-.358-.856-.607-1.444-.518-.232.036-.482 0-.713 0-.981-.053-1.801.071-2.675.731-1.693 1.301-3.904 1.034-5.544-.374a1.3 1.3 0 0 0-.214-.125c-.267-.107-.535-.125-.82-.125H32.993z"/><path fill="#fefefe" d="M30.052 40.787c0 1.39-1.07 2.46-2.443 2.442-1.373 0-2.425-1.105-2.407-2.496 0-1.408 1.124-2.531 2.496-2.496 1.337.018 2.371 1.141 2.371 2.532z"/><path fill="#005329" d="M32.993 50.164c.178-.196.41-.09.606-.09h13.959c.285 0 .624-.106.82.215H33.795c-.25 0-.588.213-.802-.108z"/><path fill="#006a46" d="M60.18 24.546c-.713-.036-1.55-.34-1.961.748-.143.375-.57.678-.481 1.16.071.373-.072.427-.41.427H35.632c-.375 0-.482-.107-.482-.463.018-.963 0-1.944 0-2.906 0-.357-.089-.5-.463-.482-.357 0-.57.054-.535.482.035.517 0 1.034 0 1.55 0 .571.196 1.355-.107 1.676-.339.393-1.141.09-1.73.125h-.07c-.197.054-.482-.125-.571.143-.09.25.214.392.32.588.072.16.464-.036.357.321-.071.25-.285.392-.499.463-1.194.41-1.925-.089-1.979-1.354 0-.143.072-.34-.089-.41q-.267-.108-.535.107c-.445.32-.463 1.194-.017 1.8.624.874 3.066 1.105 3.672.178.5-.766 1.016-1.07 1.836-1.176a.73.73 0 0 1 .535.107c.178-.09.374-.054.57-.054h22.196c.196 0 .392-.035.57.054l2.193.053c.303 0 .535-.089.695-.374.606-1.088-.16-2.692-1.39-2.763zm-1.337 2.21c-.303 0-.428-.125-.428-.303 0-.374 0-.606.357-.606.32 0 .392.232.392.463 0 .215-.036.428-.339.446zm1.497.143c-.41 0-.57-.107-.463-.535.107-.446-.196-.749-.553-1.123.91-.071 1.373.285 1.427 1.07 0 .285.107.606-.41.606z"/><path fill="#056d4a" d="M53.869 46.58c0 1.284-1.016 2.39-2.21 2.407-1.177 0-2.282-1.123-2.282-2.353 0-1.283 1.07-2.407 2.3-2.389 1.176 0 2.192 1.106 2.192 2.354zm10.161.054c0 1.266-1.087 2.371-2.281 2.353-1.177-.035-2.193-1.123-2.175-2.37 0-1.32.998-2.372 2.228-2.372 1.212 0 2.246 1.105 2.229 2.389"/></svg>
